X:1
T:Title
%%score ( 1 2 ) { 3 | 4 }
L:1/8
M:3/4
K:Eb
V:1 treble nm="Grand Piano, Treble Clef"
V:2 treble 
V:3 bass nm="Choir Pad, Lacrym�, 777"
V:4 bass 
V:1
 [EG]4 [EG]2 | G2 A2 [EB]2 | E4 [DF]2 | [EG]6 | [FB]4 [FB]2 | [Ee]4 [Fd]2 | c2- [Fc]2 [Ec]2 | %7
w: By~Arthur~Seymour~Sullivan,~1872 *|||||||
 [DB]6 | [Fc]4 [CB]2 | A2 z2 z2 | [DB]4 [B,D]2 | [B,E]6- | [B,E]2 z2 z2 |] %13
w: ||||||
V:2
 x6 | E4 z2 | x6 | x6 | x6 | x6 | G2 z2 z2 | x6 | x6 | C2- [CG]2 [CF]2 | x6 | x6 | x6 |] %13
V:3
 B,4 B,2 | B,4 B,2 | G,4 A,2 | G,6 | F,4 F,2 | G,2 =A,2 B,2 | B,4 =A,2 | B,6 | A,4 =E,2 | %9
 F,2 G,2 A,2 | A,4 A,2 | G,6- | G,2 z2 z2 |] %13
V:4
 E,4 E,2 | E,2 F,2 G,2 | B,,4 B,,2 | E,6 | D,4 D,2 | C,4 D,2 | E,2 F,2 F,,2 | B,,6 | F,,4 G,,2 | %9
 A,,4 A,,2 | B,,4 B,,2 | E,6- | E,2 z2 z2 |] %13

